wp/wp-content/themes/tcs-responsive/i/nav/track-copilot.svg

<?xml version="1.0" encoding="UTF-8" standalone="no"?>
<svg width="32px" height="32px" viewBox="0 0 32 32" version="1.1" xmlns="http://www.w3.org/2000/svg" xmlns:xlink="http://www.w3.org/1999/xlink" xmlns:sketch="http://www.bohemiancoding.com/sketch/ns">
    <!-- Generator: Sketch 3.3.3 (12081) - http://www.bohemiancoding.com/sketch -->
    <title>nav/track-copilot</title>
    <desc>Created with Sketch.</desc>
    <defs></defs>
    <g id="Page-1" stroke="none" stroke-width="1" fill="none" fill-rule="evenodd" sketch:type="MSPage">
        <g id="nav/track-copilot" sketch:type="MSArtboardGroup" stroke="#F6F6F6" stroke-width="1.2" stroke-linecap="round" stroke-linejoin="round">
            <path d="M16,2 L16,5.733333" id="Stroke-137" sketch:type="MSShapeGroup"></path>
            <path d="M30.000033,16 L26.2667,16" id="Stroke-139" sketch:type="MSShapeGroup"></path>
            <path d="M16,30.000033 L16,26.2667" id="Stroke-141" sketch:type="MSShapeGroup"></path>
            <path d="M2,16 L5.733333,16" id="Stroke-143" sketch:type="MSShapeGroup"></path>
            <path d="M13.2,13.2 L18.8,18.8" id="Stroke-145" sketch:type="MSShapeGroup"></path>
            <path d="M2,16 C2,8.268267 8.268267,2 16,2 C23.73173,2 30,8.268267 30,16 C30,23.73173 23.73173,30 16,30 C8.268267,30 2,23.73173 2,16 L2,16 L2,16 Z" id="Stroke-147" sketch:type="MSShapeGroup"></path>
            <path d="M21.6,10.4 L18.8,18.8 L10.4,21.6 L13.2,13.2 L21.6,10.4 L21.6,10.4 Z" id="Stroke-149" sketch:type="MSShapeGroup"></path>
        </g>
    </g>
</svg>

<svg xmlns="http://www.w3.org/2000/svg" width="32" height="32" viewBox="0 0 32 32"><g fill="none" fill-rule="evenodd" stroke="#FFF" stroke-width="2" stroke-linecap="round" stroke-linejoin="round"><path d="M16 2v3.733M30 16h-3.733M16 30v-3.733M2 16h3.733m7.467-2.8l5.6 5.6M2 16C2 8.268 8.268 2 16 2s14 6.268 14 14-6.268 14-14 14S2 23.732 2 16z"/><path d="M21.6 10.4l-2.8 8.4-8.4 2.8 2.8-8.4z"/></g></svg>
